X:1
T:Herr Jesu Christ, Mein’s, LM
T:Herr Jesu Christ, Mein’s, LM
T:As Hymnodus Sacer (Leipzig, German
T:Public Domain Courtesy of the Cyber Hymnal™
C:As Hymnodus Sacer (Leipzig, German
Z:Public Domain
Z:Courtesy of the Cyber Hymnal™
%%score ( 1 2 ) ( 3 4 )
L:1/8
M:3/4
K:Bb
V:1 treble 
V:2 treble 
V:3 bass 
V:4 bass 
V:1
 [FB]2 [FB]2 [FB]2 | (G2 A2) [FB]2 | [Cc]4 [FA]2 | [=EG]6 | [=EG]2 [FA]2 [FB]2 | (c2 B2) [FA]2 | %6
 [FB]2 [=EG]4 | F6 | [DB]2 [DB]2 [Fc]2 | (d2 c2) [GB]2 | e4 [Fd]2 | [Fc]6 | [DB]2 [GB]2 [Fd]2 | %13
 c4 [DB]2 | [GB]4 [FA]2 | [FB]6 |] %16
V:2
 x6 | E4 x2 | x6 | x6 | x6 | C4 x2 | x6 | F6 | x6 | F4 x2 | (G2 F2) x2 | x6 | x6 | (F2 E2) x2 | %14
 x6 | x6 |] %16
V:3
 [B,,D]2 [D,D]2 [B,,D]2 | (B,2 C2) [D,B,]2 | [=E,G,]4 [F,C]2 | [C,C]6 | [C,C]2 [F,C]2 [D,B,]2 | %5
 [=E,G,]4 [F,C]2 | [B,,D]2 [C,C]4 | [F,,A,]6 | [B,,F,]2 G,2 [F,A,]2 | [B,,B,]4 [E,B,]2 | %10
 (B,2 A,2) [B,,B,]2 | [F,A,]6 | [G,B,]2 [E,B,]2 [D,B,]2 | [F,A,]4 [G,B,]2 | [E,C]4 [F,C]2 | %15
 [B,,D]6 |] %16
V:4
 x6 | E,4 x2 | x6 | x6 | x6 | x6 | x6 | x6 | x2 G,2 x2 | x6 | C,4 x2 | x6 | x6 | x6 | x6 | x6 |] %16

